X:1
T:Title
%%score ( 1 2 ) { 3 | 4 }
L:1/8
Q:1/4=110
M:2/2
K:F
V:1 treble nm="Grand Piano, Soprano"
V:2 treble 
V:3 bass nm="Choir Pad, Bass"
V:4 bass 
V:1
 F2 [FB]2 [Fd]3 [Fd] | [_Ed]2 [Ec]2 [EF]2 [CF]2 | F2 [FB]2 [_EB]2 [EA]2 | [DB]8 | %4
w: By~Henry~John~Gauntlett~(1805–1876) * * *||||
 F2 [FB]2 [Fd]3 [Fd] | [Fd]2 [Ec]2 F2 [CF]2 | F2 [FB]2 [_EB]2 [EA]2 | [DB]8 | F3 F [EG]2 F2 | %9
w: |||||
 [Ec]3 [EB] B2 A2 | [CF]3 [CF] [FA]2 [FB]2 | [G_e]2 [_Ee]2 [Fd]4 | D2 [DG]2 [DG]2 [D^F]2 | %13
w: ||||
 [DG]2 [GB]2 [^FA]2 [=FB]2 | [GB]2 [Gc]2 [FA]2 [FA]2 | [FB]8 |] %16
w: |||
V:2
 x8 | x8 | x8 | x8 | x8 | x8 | x8 | x8 | x8 | z4 F4 | x8 | x8 | x8 | x8 | x8 | x8 |] %16
V:3
 B,2 B,2 B,3 B, | A,2 A,2 A,2 A,2 | B,2[K:treble] D2 C2 C2 | B,8 | B,2 D2[K:bass] B,3 B, | %5
 B,2 G,2 A,2 A,2 | B,2[K:treble] D2 C2 C2 | B,8 | D3 D ^C2 =C2 | C3 C C4 | A,3 A, C2 B,2 | %11
 B,2 A,2 B,4 | B,2 B,2 A,2 A,2 | G,2[K:treble] D2 D2 B,2 | B,2 _E2 C2 C2 | D8 |] %16
V:4
 D,2 B,,2 z4 | F,2 F,2 F,2 F,2 | D,2 B,,2 F,2 F,2 | B,,8 | D,2 B,,2 z4 | B,,2 C,2 F,2 F,2 | %6
 D,2 B,,2 F,2 F,2 | B,,8 | B,,3 B,, B,2 A,2 | G,3 G, F,4 | F,3 F, _E,2 D,2 | C,2 C,2 B,,4 | %12
 B,,2 G,,2 D,2 D,C, | B,,2 G,,2 D,2 D,2 | _E,2 E,2 F,2 F,2 | B,,8 |] %16

